packages/core/assets/Icons/arrow_alt_left.svg

<svg viewBox="0 0 20 20" fill="none" xmlns="http://www.w3.org/2000/svg">
<path d="M4.85421 10.8333H17.5C17.7362 10.8333 17.9341 10.7535 18.0938 10.5937C18.2535 10.434 18.3334 10.2361 18.3334 9.99998C18.3334 9.76387 18.2535 9.56595 18.0938 9.40623C17.9341 9.24651 17.7362 9.16665 17.5 9.16665H4.85421L8.08337 5.91665C8.23615 5.76387 8.31601 5.5729 8.32296 5.34373C8.3299 5.11456 8.25004 4.91665 8.08337 4.74998C7.9306 4.5972 7.73615 4.52081 7.50004 4.52081C7.26393 4.52081 7.06949 4.5972 6.91671 4.74998L2.25004 9.41665C2.16671 9.49998 2.10768 9.59026 2.07296 9.68748C2.03824 9.7847 2.02087 9.88887 2.02087 9.99998C2.02087 10.1111 2.03824 10.2153 2.07296 10.3125C2.10768 10.4097 2.16671 10.5 2.25004 10.5833L6.91671 15.25C7.06949 15.4028 7.26046 15.4791 7.48962 15.4791C7.71879 15.4791 7.91671 15.4028 8.08337 15.25C8.25004 15.0833 8.33337 14.8854 8.33337 14.6562C8.33337 14.4271 8.25004 14.2291 8.08337 14.0625L4.85421 10.8333Z" fill="currentColor"/>
</svg>

<svg xmlns="http://www.w3.org/2000/svg" width="20" height="20" fill="none" viewBox="0 0 20 20">
  <path fill="#201F1F" d="M4.854 10.833H17.5c.236 0 .434-.08.594-.24a.803.803 0 0 0 .24-.593.806.806 0 0 0-.24-.594.806.806 0 0 0-.594-.24H4.854l3.23-3.25a.814.814 0 0 0 .239-.572.776.776 0 0 0-.24-.594.79.79 0 0 0-.583-.23.79.79 0 0 0-.583.23L2.25 9.417a.731.731 0 0 0-.177.27.922.922 0 0 0-.052.313c0 .111.017.215.052.313a.73.73 0 0 0 .177.27l4.667 4.667c.152.153.343.23.573.23a.846.846 0 0 0 .593-.23.811.811 0 0 0 .25-.594.811.811 0 0 0-.25-.594l-3.229-3.229Z"/>
</svg>
